Costumes/headband.svg

<?xml version="1.0" encoding="UTF-8" standalone="no"?>
<svg
   version="1.1"
   width="86.791107"
   height="62.301594"
   viewBox="188 92 86.791107 62.301594"
   id="svg10"
   sodipodi:docname="headband.svg"
   xmlns:inkscape="http://www.inkscape.org/namespaces/inkscape"
   xmlns:sodipodi="http://sodipodi.sourceforge.net/DTD/sodipodi-0.dtd"
   xmlns="http://www.w3.org/2000/svg"
   xmlns:svg="http://www.w3.org/2000/svg">
  <defs
     id="defs14" />
  <sodipodi:namedview
     id="namedview12"
     pagecolor="#ffffff"
     bordercolor="#000000"
     borderopacity="0.25"
     inkscape:showpageshadow="2"
     inkscape:pageopacity="0.0"
     inkscape:pagecheckerboard="0"
     inkscape:deskcolor="#d1d1d1" />
  <!-- Exported by Scratch - http://scratch.mit.edu/ -->
  <g
     id="ID0.11225510016083717"
     transform="translate(-13.208895,-0.5)">
    <path
       id="ID0.36570804519578815"
       fill="#009933"
       stroke="#000000"
       stroke-width="1"
       stroke-linecap="round"
       d="m 225,153.5 c -0.153,0.845 1.02,-1.394 1.75,-2.25 1.353,-1.477 2.494,-3.26 4.25,-4.5 3.348,-2.365 6.944,-4.477 10.75,-6 3.41,-1.363 7.259,-2.159 11,-2.5 3.312,-0.302 6.901,-0.152 10.25,0.75 3.087,0.707 5.909,2.297 8.75,4 2.285,1.371 6.658,6.109 6.25,5 -0.504,-1.357 -4.791,-7.852 -8.25,-10.75 -2.752,-2.305 -6.286,-3.712 -9.75,-4.5 -4.015,-0.827 -8.284,-1.077 -12.25,-0.25 -4.858,1.013 -9.584,2.864 -13.75,5.75 -3.398,2.356 -5.881,5.949 -8,9.5 -1.046,1.753 -1.428,4.84 -1.25,6 z" />
    <g
       id="ID0.6277817743830383"
       transform="rotate(17.447188,234.49141,150.12653)">
      <path
         id="ID0.9920099773444235"
         fill="none"
         stroke="#000000"
         stroke-width="1"
         stroke-linecap="round"
         d="m 235.5,136.5 c 0,0 0.191,-1.69 0,-2.5 -0.154,-0.653 -0.591,-1.218 -1,-1.75 -0.431,-0.56 -0.912,-1.108 -1.5,-1.5 -0.682,-0.455 -1.468,-0.753 -2.25,-1 -0.81,-0.256 -1.652,-0.453 -2.5,-0.5 -0.67,-0.037 -1.4,-0.05 -2,0.25 -0.632,0.316 -1.201,0.86 -1.5,1.5 -0.319,0.683 -0.381,1.508 -0.25,2.25 0.129,0.733 0.428,1.523 1,2 0.527,0.439 1.327,0.635 2,0.5 0.702,-0.14 1.244,-0.744 1.75,-1.25 0.589,-0.589 1.284,-1.196 1.5,-2 0.39,-1.449 0.656,-3.055 0.25,-4.5 -0.388,-1.379 -1.487,-2.487 -2.5,-3.5 -0.606,-0.606 -1.433,-0.992 -2.25,-1.25 -0.798,-0.252 -1.664,-0.208 -2.5,-0.25 -0.831,-0.042 -1.672,-0.083 -2.5,0 -0.845,0.084 -1.724,0.155 -2.5,0.5 -0.761,0.338 -1.628,0.755 -2,1.5 -0.606,1.212 -0.992,2.667 -0.75,4 0.137,0.755 1.014,1.283 1.75,1.5 0.803,0.236 1.752,0.124 2.5,-0.25 0.842,-0.421 1.509,-1.196 2,-2 0.453,-0.742 0.621,-1.64 0.75,-2.5 0.123,-0.823 0.079,-1.671 0,-2.5 -0.088,-0.927 -0.193,-1.871 -0.5,-2.75 -0.283,-0.809 -0.664,-1.625 -1.25,-2.25 -0.695,-0.741 -1.61,-1.26 -2.5,-1.75 -0.786,-0.432 -1.628,-0.792 -2.5,-1 -0.895,-0.213 -1.832,-0.294 -2.75,-0.25 -0.848,0.04 -1.709,0.192 -2.5,0.5 -0.732,0.285 -1.406,0.736 -2,1.25 -0.669,0.58 -1.295,1.241 -1.75,2 -0.805,1.341 -1.693,2.716 -2,4.25 -0.139,0.697 0.199,1.55 0.75,2 0.519,0.425 1.34,0.374 2,0.25 0.732,-0.137 1.432,-0.519 2,-1 0.547,-0.463 0.959,-1.096 1.25,-1.75 0.386,-0.867 0.554,-1.821 0.75,-2.75 0.138,-0.657 0.304,-1.331 0.25,-2 -0.115,-1.433 0.047,-3.054 -0.75,-4.25 -0.988,-1.482 -2.612,-2.548 -4.25,-3.25 -1.386,-0.594 -2.993,-0.558 -4.5,-0.5 -0.711,0.027 -1.306,0.651 -2,0.75 -0.181,0.026 0.25,-0.5 0.25,-0.5" />
      <path
         id="ID0.49125002324581146"
         fill="#ffff00"
         stroke="#000000"
         stroke-width="1"
         stroke-linecap="round"
         d="m 195.625,105.5 c 1.897,0 3.616,0.812 4.86,2.125 1.245,1.312 2.015,3.125 2.015,5.125 0,2 -0.77,3.813 -2.015,5.125 -1.244,1.313 -2.963,2.125 -4.86,2.125 -1.897,0 -3.616,-0.812 -4.86,-2.125 -1.245,-1.312 -2.015,-3.125 -2.015,-5.125 0,-2 0.77,-3.813 2.015,-5.125 1.244,-1.313 2.963,-2.125 4.86,-2.125 z" />
    </g>
    <g
       id="ID0.0817991429939866">
      <path
         id="ID0.11865589488297701"
         fill="none"
         stroke="#000000"
         stroke-width="1"
         stroke-linecap="round"
         d="m 264.5,137.25 c 0,0 0.287,-3.381 0.75,-5 0.216,-0.755 0.717,-1.423 1.25,-2 0.486,-0.526 1.118,-0.913 1.75,-1.25 0.628,-0.335 1.305,-0.899 2,-0.75 0.691,0.148 1.262,0.835 1.5,1.5 0.226,0.632 0.363,1.727 -0.25,2 -1.293,0.575 -2.887,0.382 -4.25,0 -0.852,-0.239 -1.477,-1.036 -2,-1.75 -0.421,-0.574 -0.577,-1.31 -0.75,-2 -0.163,-0.651 -0.292,-1.33 -0.25,-2 0.043,-0.685 0.193,-1.386 0.5,-2 0.372,-0.745 0.934,-1.39 1.5,-2 0.522,-0.562 1.131,-1.046 1.75,-1.5 0.633,-0.464 1.28,-0.935 2,-1.25 0.629,-0.275 1.315,-0.457 2,-0.5 0.67,-0.042 1.363,0.038 2,0.25 0.637,0.212 1.275,0.525 1.75,1 0.475,0.475 0.911,1.085 1,1.75 0.091,0.68 0.01,1.541 -0.5,2 -0.499,0.449 -1.333,0.328 -2,0.25 -0.784,-0.092 -1.58,-0.331 -2.25,-0.75 -0.699,-0.437 -1.369,-1.019 -1.75,-1.75 -0.646,-1.237 -1.25,-2.604 -1.25,-4 0,-1.636 0.57,-3.262 1.25,-4.75 0.672,-1.47 1.607,-2.857 2.75,-4 0.503,-0.503 1.3,-0.626 2,-0.75 0.738,-0.13 1.512,-0.13 2.25,0 0.7,0.124 1.476,0.269 2,0.75 0.549,0.503 0.954,1.257 1,2 0.044,0.71 -0.199,1.55 -0.75,2 -0.519,0.425 -1.329,0.25 -2,0.25 -0.754,0 -1.576,0.087 -2.25,-0.25 -0.737,-0.369 -1.293,-1.064 -1.75,-1.75 -0.395,-0.592 -0.626,-1.3 -0.75,-2 -0.13,-0.738 -0.13,-1.512 0,-2.25 0.124,-0.7 0.401,-1.38 0.75,-2 0.408,-0.726 0.934,-1.39 1.5,-2 0.522,-0.562 1.073,-1.139 1.75,-1.5 0.606,-0.323 1.355,-0.265 2,-0.5 0.282,-0.103 0.75,-0.5 0.75,-0.5" />
      <path
         id="ID0.46783466916531324"
         fill="#ffff00"
         stroke="#000000"
         stroke-width="1"
         d="m 281,93 c 1.793,0 3.418,0.742 4.595,1.942 1.177,1.199 1.905,2.855 1.905,4.683 0,1.828 -0.728,3.484 -1.905,4.683 -1.177,1.2 -2.802,1.942 -4.595,1.942 -1.793,0 -3.418,-0.742 -4.595,-1.942 -1.177,-1.199 -1.905,-2.855 -1.905,-4.683 0,-1.828 0.728,-3.484 1.905,-4.683 C 277.582,93.742 279.207,93 281,93 Z" />
    </g>
  </g>
</svg>

<svg version="1.1" width="288" height="155" viewBox="188 92 288 155" xmlns="http://www.w3.org/2000/svg" xmlns:xlink="http://www.w3.org/1999/xlink">
  <!-- Exported by Scratch - http://scratch.mit.edu/ -->
  <g id="ID0.11225510016083717" transform="matrix(1, 0, 0, 1, -199, -92)">
    <path id="ID0.36570804519578815" fill="#009933" stroke="#000000" stroke-width="1" stroke-linecap="round" d="M 225 153.500 C 224.847 154.345 226.020 152.106 226.750 151.250 C 228.103 149.773 229.244 147.990 231 146.750 C 234.348 144.385 237.944 142.273 241.750 140.750 C 245.160 139.387 249.009 138.591 252.750 138.250 C 256.062 137.948 259.651 138.098 263 139 C 266.087 139.707 268.909 141.297 271.750 143 C 274.035 144.371 278.408 149.109 278 148 C 277.496 146.643 273.209 140.148 269.750 137.250 C 266.998 134.945 263.464 133.538 260 132.750 C 255.985 131.923 251.716 131.673 247.750 132.500 C 242.892 133.513 238.166 135.364 234 138.250 C 230.602 140.606 228.119 144.199 226 147.750 C 224.954 149.503 224.572 152.590 224.750 153.750 Z "/>
    <g id="ID0.6277817743830383" transform="matrix(0.9539937376976013, 0.29982659220695496, -0.29982659220695496, 0.9539937376976013, 55.8, -63.4)">
      <path id="ID0.9920099773444235" fill="none" stroke="#000000" stroke-width="1" stroke-linecap="round" d="M 235.500 136.500 C 235.500 136.500 235.691 134.810 235.500 134 C 235.346 133.347 234.909 132.782 234.500 132.250 C 234.069 131.690 233.588 131.142 233 130.750 C 232.318 130.295 231.532 129.997 230.750 129.750 C 229.940 129.494 229.098 129.297 228.250 129.250 C 227.580 129.213 226.850 129.200 226.250 129.500 C 225.618 129.816 225.049 130.360 224.750 131 C 224.431 131.683 224.369 132.508 224.500 133.250 C 224.629 133.983 224.928 134.773 225.500 135.250 C 226.027 135.689 226.827 135.885 227.500 135.750 C 228.202 135.610 228.744 135.006 229.250 134.500 C 229.839 133.911 230.534 133.304 230.750 132.500 C 231.140 131.051 231.406 129.445 231 128 C 230.612 126.621 229.513 125.513 228.500 124.500 C 227.894 123.894 227.067 123.508 226.250 123.250 C 225.452 122.998 224.586 123.042 223.750 123 C 222.919 122.958 222.078 122.917 221.250 123 C 220.405 123.084 219.526 123.155 218.750 123.500 C 217.989 123.838 217.122 124.255 216.750 125 C 216.144 126.212 215.758 127.667 216 129 C 216.137 129.755 217.014 130.283 217.750 130.500 C 218.553 130.736 219.502 130.624 220.250 130.250 C 221.092 129.829 221.759 129.054 222.250 128.250 C 222.703 127.508 222.871 126.610 223 125.750 C 223.123 124.927 223.079 124.079 223 123.250 C 222.912 122.323 222.807 121.379 222.500 120.500 C 222.217 119.691 221.836 118.875 221.250 118.250 C 220.555 117.509 219.640 116.990 218.750 116.500 C 217.964 116.068 217.122 115.708 216.250 115.500 C 215.355 115.287 214.418 115.206 213.500 115.250 C 212.652 115.290 211.791 115.442 211 115.750 C 210.268 116.035 209.594 116.486 209 117 C 208.331 117.580 207.705 118.241 207.250 119 C 206.445 120.341 205.557 121.716 205.250 123.250 C 205.111 123.947 205.449 124.800 206 125.250 C 206.519 125.675 207.340 125.624 208 125.500 C 208.732 125.363 209.432 124.981 210 124.500 C 210.547 124.037 210.959 123.404 211.250 122.750 C 211.636 121.883 211.804 120.929 212 120 C 212.138 119.343 212.304 118.669 212.250 118 C 212.135 116.567 212.297 114.946 211.500 113.750 C 210.512 112.268 208.888 111.202 207.250 110.500 C 205.864 109.906 204.257 109.942 202.750 110 C 202.039 110.027 201.444 110.651 200.750 110.750 C 200.569 110.776 201 110.250 201 110.250 "/>
      <path id="ID0.49125002324581146" fill="#FFFF00" stroke="#000000" stroke-width="1" stroke-linecap="round" d="M 195.625 105.500 C 197.522 105.500 199.241 106.312 200.485 107.625 C 201.730 108.937 202.500 110.750 202.500 112.750 C 202.500 114.750 201.730 116.563 200.485 117.875 C 199.241 119.188 197.522 120 195.625 120 C 193.728 120 192.009 119.188 190.765 117.875 C 189.520 116.563 188.750 114.750 188.750 112.750 C 188.750 110.750 189.520 108.937 190.765 107.625 C 192.009 106.312 193.728 105.500 195.625 105.500 Z "/>
    </g>
    <g id="ID0.0817991429939866">
      <path id="ID0.11865589488297701" fill="none" stroke="#000000" stroke-width="1" stroke-linecap="round" d="M 264.500 137.250 C 264.500 137.250 264.787 133.869 265.250 132.250 C 265.466 131.495 265.967 130.827 266.500 130.250 C 266.986 129.724 267.618 129.337 268.250 129 C 268.878 128.665 269.555 128.101 270.250 128.250 C 270.941 128.398 271.512 129.085 271.750 129.750 C 271.976 130.382 272.113 131.477 271.500 131.750 C 270.207 132.325 268.613 132.132 267.250 131.750 C 266.398 131.511 265.773 130.714 265.250 130 C 264.829 129.426 264.673 128.690 264.500 128 C 264.337 127.349 264.208 126.670 264.250 126 C 264.293 125.315 264.443 124.614 264.750 124 C 265.122 123.255 265.684 122.610 266.250 122 C 266.772 121.438 267.381 120.954 268 120.500 C 268.633 120.036 269.280 119.565 270 119.250 C 270.629 118.975 271.315 118.793 272 118.750 C 272.670 118.708 273.363 118.788 274 119 C 274.637 119.212 275.275 119.525 275.750 120 C 276.225 120.475 276.661 121.085 276.750 121.750 C 276.841 122.430 276.760 123.291 276.250 123.750 C 275.751 124.199 274.917 124.078 274.250 124 C 273.466 123.908 272.670 123.669 272 123.250 C 271.301 122.813 270.631 122.231 270.250 121.500 C 269.604 120.263 269 118.896 269 117.500 C 269 115.864 269.570 114.238 270.250 112.750 C 270.922 111.280 271.857 109.893 273 108.750 C 273.503 108.247 274.300 108.124 275 108 C 275.738 107.870 276.512 107.870 277.250 108 C 277.950 108.124 278.726 108.269 279.250 108.750 C 279.799 109.253 280.204 110.007 280.250 110.750 C 280.294 111.460 280.051 112.300 279.500 112.750 C 278.981 113.175 278.171 113 277.500 113 C 276.746 113 275.924 113.087 275.250 112.750 C 274.513 112.381 273.957 111.686 273.500 111 C 273.105 110.408 272.874 109.700 272.750 109 C 272.620 108.262 272.620 107.488 272.750 106.750 C 272.874 106.050 273.151 105.370 273.500 104.750 C 273.908 104.024 274.434 103.360 275 102.750 C 275.522 102.188 276.073 101.611 276.750 101.250 C 277.356 100.927 278.105 100.985 278.750 100.750 C 279.032 100.647 279.500 100.250 279.500 100.250 "/>
      <path id="ID0.46783466916531324" fill="#FFFF00" stroke="#000000" stroke-width="1" d="M 281 93 C 282.793 93 284.418 93.742 285.595 94.942 C 286.772 96.141 287.500 97.797 287.500 99.625 C 287.500 101.453 286.772 103.109 285.595 104.308 C 284.418 105.508 282.793 106.250 281 106.250 C 279.207 106.250 277.582 105.508 276.405 104.308 C 275.228 103.109 274.500 101.453 274.500 99.625 C 274.500 97.797 275.228 96.141 276.405 94.942 C 277.582 93.742 279.207 93 281 93 Z "/>
    </g>
  </g>
</svg>
